src/ios-color-palette.svg

<svg xmlns="http://www.w3.org/2000/svg" viewBox="0 0 512 512" xml:space="preserve"><path d="M430.1 347.9c-6.6-6.1-16.3-7.6-24.6-9-11.5-1.9-15.9-4-22.6-10-14.3-12.7-14.3-31.1 0-43.8l30.3-26.9c46.4-41 46.4-108.2 0-149.2-34.2-30.1-80.1-45-127.8-45-55.7 0-113.9 20.3-158.8 60.1-83.5 73.8-83.5 194.7 0 268.5 41.5 36.7 97.5 55 152.9 55.4h1.7c55.4 0 110-17.9 148.8-52.4 14.4-12.7 12-36.6.1-47.7zM120 216c0-17.7 14.3-32 32-32s32 14.3 32 32-14.3 32-32 32-32-14.3-32-32zm40 126c-17.7 0-32-14.3-32-32s14.3-32 32-32 32 14.3 32 32-14.3 32-32 32zm64-161c-17.7 0-32-14.3-32-32s14.3-32 32-32 32 14.3 32 32-14.3 32-32 32zm72 219c-26.5 0-48-21.5-48-48s21.5-48 48-48 48 21.5 48 48-21.5 48-48 48zm24-208c-17.7 0-32-14.3-32-32s14.3-32 32-32 32 14.3 32 32-14.3 32-32 32z"/></svg>

<?xml version="1.0" encoding="utf-8"?>
<!-- Generator: Adobe Illustrator 18.1.1, SVG Export Plug-In . SVG Version: 6.00 Build 0)  -->
<svg version="1.1" id="Layer_1" xmlns="http://www.w3.org/2000/svg" xmlns:xlink="http://www.w3.org/1999/xlink" x="0px" y="0px"
	 viewBox="0 0 512 512" enable-background="new 0 0 512 512" xml:space="preserve">
<g>
	<path d="M430.1,347.9c-6.6-6.1-16.3-7.6-24.6-9c-11.5-1.9-15.9-4-22.6-10c-14.3-12.7-14.3-31.1,0-43.8l30.3-26.9
		c46.4-41,46.4-108.2,0-149.2C379,78.9,333.1,64,285.4,64c-55.7,0-113.9,20.3-158.8,60.1c-83.5,73.8-83.5,194.7,0,268.5
		c41.5,36.7,97.5,55,152.9,55.4c0.6,0,1.2,0,1.7,0c55.4,0,110-17.9,148.8-52.4C444.4,382.9,442,359,430.1,347.9z M120,216
		c0-17.7,14.3-32,32-32s32,14.3,32,32s-14.3,32-32,32S120,233.7,120,216z M160,342c-17.7,0-32-14.3-32-32s14.3-32,32-32
		s32,14.3,32,32S177.7,342,160,342z M224,181c-17.7,0-32-14.3-32-32s14.3-32,32-32s32,14.3,32,32S241.7,181,224,181z M296,400
		c-26.5,0-48-21.5-48-48s21.5-48,48-48s48,21.5,48,48S322.5,400,296,400z M320,192c-17.7,0-32-14.3-32-32s14.3-32,32-32
		s32,14.3,32,32S337.7,192,320,192z"/>
</g>
</svg>
